; G-Code generated by Simplify3D(R) Version 3.1.1
; Jan 4, 2018 at 10:59:43 AM
; Settings Summary
;   processName,Process1
;   applyToModels,CaseBotV2,topBar
;   profileName,MakerGear M2 (24V V4 hotend) (modified)
;   profileVersion,2017-08-11 01:59:09
;   baseProfile,
;   printMaterial,PLA
;   printQuality,Medium
;   printExtruders,
;   extruderName,Primary Extruder
;   extruderToolheadNumber,0
;   extruderDiameter,0.5
;   extruderAutoWidth,0
;   extruderWidth,0.4
;   extrusionMultiplier,1
;   extruderUseRetract,1
;   extruderRetractionDistance,1
;   extruderExtraRestartDistance,0
;   extruderRetractionZLift,0
;   extruderRetractionSpeed,2400
;   extruderUseCoasting,0
;   extruderCoastingDistance,0.2
;   extruderUseWipe,0
;   extruderWipeDistance,5
;   primaryExtruder,0
;   layerHeight,0.2
;   topSolidLayers,3
;   bottomSolidLayers,3
;   perimeterOutlines,2
;   printPerimetersInsideOut,1
;   startPointOption,1
;   startPointOriginX,0
;   startPointOriginY,0
;   startPointOriginZ,300
;   sequentialIslands,0
;   spiralVaseMode,0
;   firstLayerHeightPercentage,25
;   firstLayerWidthPercentage,100
;   firstLayerUnderspeed,0.5
;   useRaft,0
;   raftExtruder,0
;   raftLayers,1
;   raftOffset,1
;   raftSeparationDistance,0.2
;   raftInfill,100
;   disableRaftBaseLayers,0
;   useSkirt,0
;   skirtExtruder,0
;   skirtLayers,0
;   skirtOutlines,0
;   skirtOffset,0.2
;   usePrimePillar,0
;   primePillarExtruder,999
;   primePillarWidth,12
;   primePillarLocation,7
;   primePillarSpeedMultiplier,1
;   useOozeShield,0
;   oozeShieldExtruder,999
;   oozeShieldOffset,2
;   oozeShieldOutlines,1
;   oozeShieldSidewallShape,1
;   oozeShieldSidewallAngle,30
;   oozeShieldSpeedMultiplier,1
;   infillExtruder,0
;   internalInfillPattern,Fast Honeycomb
;   externalInfillPattern,Rectilinear
;   infillPercentage,25
;   outlineOverlapPercentage,15
;   infillExtrusionWidthPercentage,100
;   minInfillLength,5
;   infillLayerInterval,1
;   infillAngles,0
;   overlapInfillAngles,0
;   generateSupport,1
;   supportExtruder,0
;   supportInfillPercentage,20
;   supportExtraInflation,0
;   denseSupportLayers,0
;   denseSupportInfillPercentage,100
;   supportLayerInterval,1
;   supportHorizontalPartOffset,0.3
;   supportUpperSeparationLayers,1
;   supportLowerSeparationLayers,1
;   supportType,0
;   supportGridSpacing,1.25
;   maxOverhangAngle,40
;   supportAngles,0,120,240
;   temperatureName,Primary Extruder,Heated Bed
;   temperatureNumber,0,2
;   temperatureSetpointCount,1,1
;   temperatureSetpointLayers,1,1
;   temperatureSetpointTemperatures,220,60
;   temperatureStabilizeAtStartup,1,0
;   temperatureHeatedBed,0,1
;   temperatureRelayBetweenLayers,0,0
;   temperatureRelayBetweenLoops,0,0
;   fanLayers,1
;   fanSpeeds,100
;   blipFanToFullPower,1
;   adjustSpeedForCooling,1
;   minSpeedLayerTime,15
;   minCoolingSpeedSlowdown,20
;   increaseFanForCooling,0
;   minFanLayerTime,45
;   maxCoolingFanSpeed,100
;   increaseFanForBridging,0
;   bridgingFanSpeed,100
;   use5D,1
;   relativeEdistances,0
;   allowEaxisZeroing,1
;   independentExtruderAxes,0
;   includeM10123,0
;   stickySupport,1
;   applyToolheadOffsets,0
;   gcodeXoffset,0
;   gcodeYoffset,0
;   gcodeZoffset,0
;   overrideMachineDefinition,1
;   machineTypeOverride,0
;   strokeXoverride,200
;   strokeYoverride,250
;   strokeZoverride,200
;   originOffsetXoverride,0
;   originOffsetYoverride,0
;   originOffsetZoverride,0
;   homeXdirOverride,-1
;   homeYdirOverride,-1
;   homeZdirOverride,-1
;   flipXoverride,1
;   flipYoverride,-1
;   flipZoverride,1
;   toolheadOffsets,0,0|0,0|0,0|0,0|0,0|0,0
;   overrideFirmwareConfiguration,1
;   firmwareTypeOverride,RepRap (Marlin/Repetier/Sprinter)
;   GPXconfigOverride,r2
;   baudRateOverride,115200
;   overridePrinterModels,1
;   printerModelsOverride,MakerGear_M2Single.stl
;   startingGcode,M108 S255 ; turn on M2 fans,G28 ; home all axes,G1 Y50 Z0.3 F9600 ; move forward to avoid binder clips,G1 X205 Z10 ; move off platform,G1 Z0.4 ; position nozzle,G92 E0 ; zero extruder,G1 E25 F225 ; purge nozzle,G92 E0 ; zero extruder,G1 X190 Z0.1 E1.0 F1200 ; slow wipe,G1 X180 Z0.25 ; lift
;   layerChangeGcode,
;   retractionGcode,
;   toolChangeGcode,
;   endingGcode,M104 S0 ; turn off extruder,M140 S0 ; turn off bed,G91 ; relative mode,G1 Z10 ; lift 10mm,G90 ; absolute mode,G28 X0 ; home X axis,M84 ; disable motors
;   exportFileFormat,gcode
;   celebration,0
;   celebrationSong,Random Song
;   postProcessing,
;   defaultSpeed,4800
;   outlineUnderspeed,0.6
;   solidInfillUnderspeed,0.8
;   supportUnderspeed,0.8
;   rapidXYspeed,18000
;   rapidZspeed,1200
;   minBridgingArea,50
;   bridgingExtraInflation,0
;   bridgingExtrusionMultiplier,1
;   bridgingSpeedMultiplier,1
;   filamentDiameter,1.7
;   filamentPricePerKg,46
;   filamentDensity,1.25
;   useMinPrintHeight,1
;   minPrintHeight,-0.5
;   useMaxPrintHeight,0
;   maxPrintHeight,0
;   useDiaphragm,0
;   diaphragmLayerInterval,20
;   robustSlicing,1
;   mergeAllIntoSolid,0
;   onlyRetractWhenCrossingOutline,1
;   retractBetweenLayers,1
;   useRetractionMinTravel,0
;   retractionMinTravel,3
;   retractWhileWiping,0
;   onlyWipeOutlines,1
;   avoidCrossingOutline,0
;   maxMovementDetourFactor,3
;   toolChangeRetractionDistance,12
;   toolChangeExtraRestartDistance,0
;   toolChangeRetractionSpeed,600
;   allowThinWallGapFill,1
;   thinWallAllowedOverlapPercentage,10
;   horizontalSizeCompensation,0
G90
M82
M106 S255
M140 S60
M104 S220 T0
M109 S220 T0
M108 S255 ; turn on M2 fans
G28 ; home all axes
G1 Y50 Z0.3 F9600 ; move forward to avoid binder clips
G1 X205 Z10 ; move off platform
G1 Z0.4 ; position nozzle
G92 E0 ; zero extruder
G1 E25 F225 ; purge nozzle
G92 E0 ; zero extruder
G1 X190 Z0.1 E1.0 F1200 ; slow wipe
G1 X180 Z0.25 ; lift
G92 E0
G1 E-1.0000 F2400
G1 Z0.050 F1200
; layer 1, Z = 0.05
T0
; tool H0.200 W0.400
; inner perimeter
G1 X133.726 Y89.102 F18000
G1 E0.0000 F720
G92 E0
G1 X134.125 Y89.133 E0.0141 F1920
G1 X134.491 Y89.221 E0.0274
G1 X134.839 Y89.365 E0.0406
G1 X135.160 Y89.562 E0.0539
G1 X135.446 Y89.806 E0.0672
G1 X135.690 Y90.092 E0.0804
G1 X135.887 Y90.413 E0.0937
G1 X136.031 Y90.761 E0.1069
G1 X136.119 Y91.126 E0.1202
G1 X136.150 Y91.534 E0.1346
G1 X136.150 Y98.478 E0.3794
G1 X136.119 Y98.877 E0.3935
G1 X136.031 Y99.243 E0.4067
G1 X135.887 Y99.591 E0.4200
G1 X135.690 Y99.912 E0.4332
G1 X135.446 Y100.198 E0.4465
G1 X135.160 Y100.442 E0.4598
G1 X134.839 Y100.639 E0.4730
G1 X134.491 Y100.783 E0.4863
G1 X134.125 Y100.871 E0.4996
G1 X133.724 Y100.902 E0.5137
G1 X131.998 Y100.902 E0.5746
G1 X130.330 Y99.731 E0.6464
G1 X128.294 Y98.724 E0.7265
G1 X126.128 Y98.040 E0.8065
G1 X123.881 Y97.694 E0.8866
G1 X121.610 Y97.695 E0.9667
G1 X119.365 Y98.042 E1.0468
G1 X117.199 Y98.727 E1.1268
G1 X115.164 Y99.735 E1.2069
G1 X113.501 Y100.902 E1.2785
G1 X107.725 Y100.902 E1.4821
G1 X107.185 Y100.945 E1.5011
G1 X106.636 Y101.077 E1.5211
G1 X106.114 Y101.293 E1.5410
G1 X105.632 Y101.589 E1.5609
G1 X105.202 Y101.956 E1.5808
G1 X104.835 Y102.386 E1.6007
G1 X104.540 Y102.868 E1.6207
G1 X104.324 Y103.390 E1.6406
G1 X104.192 Y103.940 E1.6605
G1 X104.150 Y104.479 E1.6795
G1 X104.150 Y120.527 E2.2452
G1 X104.193 Y121.067 E2.2643
G1 X104.325 Y121.616 E2.2842
G1 X104.541 Y122.138 E2.3041
G1 X104.837 Y122.620 E2.3240
G1 X105.204 Y123.050 E2.3439
G1 X105.634 Y123.417 E2.3639
G1 X106.116 Y123.712 E2.3838
G1 X106.638 Y123.928 E2.4037
G1 X107.188 Y124.060 E2.4236
G1 X107.726 Y124.102 E2.4427
G1 X113.502 Y124.102 E2.6462
G1 X115.172 Y125.274 E2.7181
G1 X117.208 Y126.281 E2.7982
G1 X119.374 Y126.965 E2.8782
G1 X121.616 Y127.310 E2.9582
G1 X123.889 Y127.310 E3.0383
G1 X126.133 Y126.963 E3.1184
G1 X128.299 Y126.278 E3.1984
G1 X130.335 Y125.271 E3.2785
G1 X131.999 Y124.102 E3.3501
G1 X133.726 Y124.102 E3.4110
G1 X134.125 Y124.133 E3.4251
G1 X134.491 Y124.221 E3.4384
G1 X134.839 Y124.365 E3.4517
G1 X135.160 Y124.562 E3.4649
G1 X135.446 Y124.806 E3.4782
G1 X135.690 Y125.092 E3.4914
G1 X135.887 Y125.413 E3.5047
G1 X136.031 Y125.761 E3.5180
G1 X136.119 Y126.127 E3.5312
G1 X136.150 Y126.530 E3.5455
G1 X136.150 Y133.478 E3.7904
G1 X136.119 Y133.877 E3.8045
G1 X136.031 Y134.243 E3.8177
G1 X135.887 Y134.591 E3.8310
G1 X135.690 Y134.912 E3.8443
G1 X135.446 Y135.198 E3.8575
G1 X135.160 Y135.442 E3.8708
G1 X134.839 Y135.639 E3.8841
G1 X134.491 Y135.783 E3.8973
G1 X134.126 Y135.870 E3.9105
G1 X133.704 Y135.902 E3.9255
G1 X68.274 Y135.902 E6.2316
G1 X67.562 Y135.846 E6.2568
G1 X66.891 Y135.685 E6.2811
G1 X66.253 Y135.421 E6.3054
G1 X65.665 Y135.060 E6.3297
G1 X65.140 Y134.612 E6.3540
G1 X64.692 Y134.087 E6.3784
G1 X64.331 Y133.499 E6.4027
G1 X64.067 Y132.861 E6.4270
G1 X63.906 Y132.190 E6.4513
G1 X63.850 Y131.478 E6.4765
G1 X63.850 Y93.526 E7.8142
G1 X63.906 Y92.814 E7.8393
G1 X64.067 Y92.143 E7.8637
G1 X64.331 Y91.505 E7.8880
G1 X64.692 Y90.917 E7.9123
G1 X65.140 Y90.392 E7.9366
G1 X65.665 Y89.944 E7.9609
G1 X66.253 Y89.583 E7.9853
G1 X66.889 Y89.320 E8.0095
G1 X67.562 Y89.158 E8.0339
G1 X68.274 Y89.102 E8.0591
G1 X133.726 Y89.102 E10.3660
; outer perimeter
G1 X133.742 Y88.702 F18000
G92 E0
G1 X134.188 Y88.737 E0.0158 F1440
G1 X134.615 Y88.840 E0.0312
G1 X135.021 Y89.008 E0.0467
G1 X135.395 Y89.237 E0.0622
G1 X135.729 Y89.523 E0.0777
G1 X136.015 Y89.857 E0.0932
G1 X136.244 Y90.231 E0.1087
G1 X136.412 Y90.637 E0.1241
G1 X136.515 Y91.064 E0.1396
G1 X136.550 Y91.519 E0.1557
G1 X136.550 Y98.494 E0.4015
G1 X136.515 Y98.940 E0.4173
G1 X136.412 Y99.367 E0.4328
G1 X136.244 Y99.773 E0.4483
G1 X136.015 Y100.147 E0.4637
G1 X135.729 Y100.482 E0.4792
G1 X135.395 Y100.767 E0.4947
G1 X135.021 Y100.996 E0.5102
G1 X134.615 Y101.164 E0.5257
G1 X134.188 Y101.267 E0.5412
G1 X133.740 Y101.302 E0.5570
G1 X131.872 Y101.302 E0.6228
G1 X130.125 Y100.076 E0.6981
G1 X128.144 Y99.096 E0.7760
G1 X126.036 Y98.430 E0.8539
G1 X123.850 Y98.094 E0.9318
G1 X121.640 Y98.094 E1.0097
G1 X119.456 Y98.432 E1.0876
G1 X117.349 Y99.099 E1.1655
G1 X115.368 Y100.079 E1.2434
G1 X113.628 Y101.302 E1.3184
G1 X107.741 Y101.302 E1.5258
G1 X107.248 Y101.341 E1.5433
G1 X106.760 Y101.458 E1.5610
G1 X106.296 Y101.651 E1.5787
G1 X105.868 Y101.913 E1.5964
G1 X105.486 Y102.240 E1.6141
G1 X105.160 Y102.622 E1.6318
G1 X104.898 Y103.050 E1.6495
G1 X104.706 Y103.514 E1.6672
G1 X104.589 Y104.002 E1.6849
G1 X104.550 Y104.494 E1.7023
G1 X104.550 Y120.511 E2.2668
G1 X104.589 Y121.004 E2.2842
G1 X104.706 Y121.492 E2.3019
G1 X104.899 Y121.956 E2.3196
G1 X105.161 Y122.384 E2.3373
G1 X105.488 Y122.766 E2.3550
G1 X105.870 Y123.092 E2.3727
G1 X106.298 Y123.354 E2.3904
G1 X106.762 Y123.546 E2.4081
G1 X107.250 Y123.663 E2.4258
G1 X107.742 Y123.702 E2.4432
G1 X113.628 Y123.702 E2.6506
G1 X115.376 Y124.929 E2.7259
G1 X117.358 Y125.908 E2.8038
G1 X119.465 Y126.574 E2.8817
G1 X121.646 Y126.910 E2.9595
G1 X123.858 Y126.910 E3.0375
G1 X126.042 Y126.572 E3.1154
G1 X128.149 Y125.906 E3.1932
G1 X130.130 Y124.926 E3.2711
G1 X131.872 Y123.702 E3.3462
G1 X133.742 Y123.702 E3.4121
G1 X134.188 Y123.737 E3.4278
G1 X134.615 Y123.840 E3.4433
G1 X135.021 Y124.008 E3.4588
G1 X135.395 Y124.237 E3.4743
G1 X135.729 Y124.523 E3.4898
G1 X136.015 Y124.857 E3.5053
G1 X136.244 Y125.231 E3.5207
G1 X136.412 Y125.637 E3.5362
G1 X136.515 Y126.064 E3.5517
G1 X136.550 Y126.515 E3.5676
G1 X136.550 Y133.494 E3.8136
G1 X136.515 Y133.940 E3.8294
G1 X136.412 Y134.367 E3.8449
G1 X136.244 Y134.773 E3.8603
G1 X136.015 Y135.147 E3.8758
G1 X135.729 Y135.482 E3.8913
G1 X135.395 Y135.767 E3.9068
G1 X135.021 Y135.996 E3.9223
G1 X134.615 Y136.164 E3.9378
G1 X134.188 Y136.267 E3.9532
G1 X133.719 Y136.302 E3.9698
G1 X68.258 Y136.302 E6.2770
G1 X67.499 Y136.242 E6.3038
G1 X66.767 Y136.067 E6.3304
G1 X66.071 Y135.778 E6.3569
G1 X65.429 Y135.385 E6.3835
G1 X64.856 Y134.896 E6.4100
G1 X64.367 Y134.323 E6.4366
G1 X63.974 Y133.681 E6.4631
G1 X63.686 Y132.985 E6.4896
G1 X63.510 Y132.253 E6.5162
G1 X63.450 Y131.494 E6.5430
G1 X63.450 Y93.510 E7.8818
G1 X63.510 Y92.751 E7.9086
G1 X63.686 Y92.019 E7.9351
G1 X63.974 Y91.323 E7.9617
G1 X64.367 Y90.681 E7.9882
G1 X64.856 Y90.108 E8.0148
G1 X65.429 Y89.619 E8.0413
G1 X66.071 Y89.226 E8.0679
G1 X66.765 Y88.938 E8.0944
G1 X67.499 Y88.762 E8.1210
G1 X68.258 Y88.702 E8.1478
G1 X133.742 Y88.702 E10.4558
; solid layer
G1 X135.122 Y89.977 F18000
G92 E0
G1 X135.275 Y90.130 E0.0077 F1920
G1 X135.414 Y90.293 E0.0152
G1 X135.583 Y90.568 E0.0266
G1 X135.706 Y90.866 E0.0380
G1 X135.782 Y91.180 E0.0493
G1 X135.783 Y91.204 E0.0502
G1 X134.048 Y89.468 E0.1367
G1 X133.713 Y89.442 E0.1485
G1 X133.456 Y89.442 E0.1576
G1 X135.810 Y91.796 E0.2749
G1 X135.810 Y92.362 E0.2949
G1 X132.890 Y89.442 E0.4404
G1 X132.324 Y89.442 E0.4604
G1 X135.810 Y92.928 E0.6341
G1 X135.810 Y93.493 E0.6540
G1 X131.759 Y89.442 E0.8560
G1 X131.193 Y89.442 E0.8759
G1 X135.810 Y94.059 E1.1060
G1 X135.810 Y94.625 E1.1260
G1 X130.627 Y89.442 E1.3843
G1 X130.062 Y89.442 E1.4043
G1 X135.810 Y95.190 E1.6908
G1 X135.810 Y95.756 E1.7107
G1 X129.496 Y89.442 E2.0254
G1 X128.930 Y89.442 E2.0454
G1 X135.810 Y96.322 E2.3883
G1 X135.810 Y96.888 E2.4082
G1 X128.365 Y89.442 E2.7794
G1 X127.799 Y89.442 E2.7993
G1 X135.810 Y97.453 E3.1986
G1 X135.810 Y98.019 E3.2185
G1 X127.233 Y89.442 E3.6460
G1 X126.667 Y89.442 E3.6660
G1 X135.801 Y98.576 E4.1213
G1 X135.782 Y98.824 E4.1300
G1 X135.724 Y99.064 E4.1387
G1 X126.102 Y89.442 E4.6184
G1 X125.536 Y89.442 E4.6383
G1 X135.563 Y99.469 E5.1381
G1 X135.414 Y99.711 E5.1481
G1 X135.334 Y99.805 E5.1525
G1 X124.970 Y89.442 E5.6690
G1 X124.405 Y89.442 E5.6890
G1 X135.051 Y100.088 E6.2196
G1 X134.959 Y100.166 E6.2238
G1 X134.714 Y100.317 E6.2340
G1 X123.839 Y89.442 E6.7760
G1 X123.273 Y89.442 E6.7960
G1 X134.308 Y100.477 E7.3460
G1 X134.072 Y100.534 E7.3546
G1 X133.819 Y100.554 E7.3635
G1 X122.708 Y89.442 E7.9173
G1 X122.142 Y89.442 E7.9373
G1 X133.262 Y100.562 E8.4916
G1 X132.696 Y100.562 E8.5115
G1 X121.576 Y89.442 E9.0658
G1 X121.011 Y89.442 E9.0857
G1 X132.131 Y100.562 E9.6400
G1 X132.106 Y100.562 E9.6408
G1 X130.504 Y99.437 E9.7098
G1 X130.378 Y99.375 E9.7148
G1 X120.445 Y89.442 E10.2099
G1 X119.879 Y89.442 E10.2298
G1 X129.259 Y98.822 E10.6974
G1 X128.421 Y98.408 E10.7303
G1 X128.214 Y98.342 E10.7380
G1 X119.314 Y89.442 E11.1816
G1 X118.748 Y89.442 E11.2015
G1 X127.387 Y98.081 E11.6321
G1 X126.560 Y97.820 E11.6627
G1 X118.182 Y89.442 E12.0803
G1 X117.617 Y89.442 E12.1002
G1 X125.823 Y97.649 E12.5093
G1 X125.155 Y97.546 E12.5331
G1 X117.051 Y89.442 E12.9370
G1 X116.485 Y89.442 E12.9570
G1 X124.486 Y97.443 E13.3558
G1 X123.907 Y97.354 E13.3764
G1 X123.831 Y97.354 E13.3791
G1 X115.919 Y89.442 E13.7735
G1 X115.354 Y89.442 E13.7934
G1 X123.266 Y97.354 E14.1878
G1 X122.700 Y97.354 E14.2077
G1 X114.788 Y89.442 E14.6021
G1 X114.222 Y89.442 E14.6220
G1 X122.135 Y97.354 E15.0164
G1 X121.583 Y97.355 E15.0358
G1 X121.571 Y97.356 E15.0363
G1 X113.657 Y89.442 E15.4307
G1 X113.091 Y89.442 E15.4507
G1 X121.081 Y97.432 E15.8489
G1 X120.591 Y97.508 E15.8664
G1 X112.525 Y89.442 E16.2685
G1 X111.960 Y89.442 E16.2884
G1 X120.101 Y97.584 E16.6942
G1 X119.611 Y97.659 E16.7117
G1 X111.394 Y89.442 E17.1213
G1 X110.828 Y89.442 E17.1412
G1 X119.142 Y97.756 E17.5556
G1 X118.712 Y97.892 E17.5715
G1 X110.263 Y89.442 E17.9926
G1 X109.697 Y89.442 E18.0126
G1 X118.282 Y98.028 E18.4405
G1 X117.853 Y98.164 E18.4564
G1 X109.131 Y89.442 E18.8911
G1 X108.566 Y89.442 E18.9111
G1 X117.423 Y98.300 E19.3525
G1 X117.072 Y98.411 E19.3655
G1 X117.003 Y98.445 E19.3682
G1 X108.000 Y89.442 E19.8170
G1 X107.434 Y89.442 E19.8369
G1 X116.624 Y98.632 E20.2950
G1 X116.246 Y98.819 E20.3099
G1 X106.868 Y89.442 E20.7773
G1 X106.303 Y89.442 E20.7972
G1 X115.867 Y99.007 E21.2740
G1 X115.489 Y99.194 E21.2889
G1 X105.737 Y89.442 E21.7749
G1 X105.171 Y89.442 E21.7949
G1 X115.111 Y99.381 E22.2903
G1 X114.989 Y99.441 E22.2951
G1 X114.764 Y99.600 E22.3048
G1 X104.606 Y89.442 E22.8111
G1 X104.040 Y89.442 E22.8310
G1 X114.431 Y99.833 E23.3490
G1 X114.099 Y100.067 E23.3633
G1 X103.474 Y89.442 E23.8929
G1 X102.909 Y89.442 E23.9128
G1 X113.767 Y100.300 E24.4540
G1 X113.435 Y100.534 E24.4684
G1 X102.343 Y89.442 E25.0212
G1 X101.777 Y89.442 E25.0411
G1 X112.897 Y100.562 E25.5954
